static/assets/images/addons/logos/memcached.svg

<svg width="16" height="16" viewBox="0 0 16 16" fill="none" xmlns="http://www.w3.org/2000/svg">
<g clip-path="url(#clip0_703_2634)">
<path d="M7.67435 0H8.7029H9.3315C10.103 0.05819 10.8679 0.184394 11.6172 0.377143C12.3695 0.56793 13.0923 0.86013 13.7658 1.24572C14.2081 1.48948 14.5968 1.81986 14.9086 2.21714C15.0887 2.4328 15.2114 2.69041 15.2653 2.96612C15.3193 3.24182 15.3027 3.52668 15.2172 3.79429C15.0938 4.17521 14.8685 4.51509 14.5658 4.77714C14.1089 5.18985 13.5827 5.5187 13.0115 5.74855C12.04 6.15235 11.0167 6.41775 9.9715 6.53715C9.08765 6.6378 8.1969 6.66455 7.3086 6.61715C6.4425 6.5939 5.5809 6.48285 4.7372 6.2857C3.97285 6.1042 3.23797 5.81565 2.55434 5.42855C2.10913 5.17915 1.72009 4.8407 1.41148 4.43429C1.16007 4.13502 1.01846 3.75883 1.01015 3.36806C1.00184 2.97729 1.12731 2.59541 1.36577 2.28572C1.52382 2.07654 1.7039 1.88496 1.90291 1.71429C2.50068 1.24329 3.17807 0.883315 3.90291 0.65143C4.97556 0.279826 6.09505 0.060546 7.2286 0H7.67435Z" fill="#1971BD"/>
<path d="M15.2974 12.6857C15.3029 12.7809 15.3029 12.8763 15.2974 12.9715C15.1874 13.4175 14.9394 13.8174 14.5889 14.1143C14.1006 14.5568 13.535 14.9055 12.9203 15.1429C12.1029 15.4633 11.2517 15.6895 10.3831 15.8172C9.5481 15.9506 8.70305 16.0118 7.85745 16C6.61025 15.9909 5.3709 15.8023 4.17745 15.44C3.39552 15.2195 2.65989 14.8594 2.00602 14.3772C1.62993 14.1005 1.32772 13.7354 1.12602 13.3143C1.03873 13.1084 0.995899 12.8865 1.00031 12.6629V9.76001C1.60893 10.3478 2.33271 10.803 3.12602 11.0972C3.79404 11.3663 4.48689 11.5692 5.1946 11.7029H5.286V14.48H6.7146C6.4843 13.6263 6.36145 12.7471 6.3489 11.8629H6.566H7.2403C7.25385 11.8613 7.26755 11.8624 7.2806 11.8662C7.2937 11.8699 7.3059 11.8762 7.31655 11.8847C7.3272 11.8932 7.336 11.9038 7.34255 11.9157C7.3491 11.9277 7.35315 11.9408 7.3546 11.9543L7.69745 13.0972V13.1543H8.54315C8.54315 13.1543 8.54315 13.1543 8.54315 13.0972C8.6689 12.72 8.78315 12.3429 8.89745 11.9543C8.91185 11.9422 8.93005 11.9356 8.9489 11.9356C8.9677 11.9356 8.9859 11.9422 9.0003 11.9543L9.89175 11.8857C9.88475 12.7666 9.76175 13.6427 9.526 14.4915H11.0117V11.7372L11.766 11.5543C12.7562 11.3424 13.7005 10.9554 14.5546 10.4115C14.7946 10.24 15.0003 10.0343 15.2289 9.85146H15.2974V12.6857ZM8.8289 14.3657C8.8739 14.3657 8.9185 14.3569 8.9601 14.3397C9.0017 14.3224 9.0395 14.2972 9.0713 14.2653C9.10315 14.2335 9.1284 14.1957 9.14565 14.1541C9.16285 14.1125 9.17175 14.0679 9.17175 14.0229C9.1569 13.9413 9.11385 13.8674 9.05015 13.8143C8.98645 13.7611 8.90615 13.732 8.82315 13.732C8.7402 13.732 8.65985 13.7611 8.59615 13.8143C8.53245 13.8674 8.48945 13.9413 8.4746 14.0229C8.47455 14.0689 8.4838 14.1144 8.50175 14.1568C8.5197 14.1992 8.54595 14.2375 8.579 14.2695C8.6121 14.3015 8.65125 14.3265 8.69415 14.343C8.7371 14.3595 8.7829 14.3673 8.8289 14.3657ZM7.85745 14.0343C7.859 13.9883 7.85125 13.9425 7.8347 13.8996C7.81815 13.8567 7.79315 13.8175 7.76115 13.7845C7.72915 13.7514 7.69085 13.7251 7.6485 13.7072C7.60615 13.6892 7.5606 13.68 7.5146 13.68C7.42365 13.68 7.33645 13.7162 7.27215 13.7805C7.20785 13.8448 7.17175 13.932 7.17175 14.0229C7.17015 14.0683 7.1779 14.1136 7.1946 14.156C7.21125 14.1983 7.23645 14.2367 7.2686 14.2689C7.30075 14.301 7.3392 14.3262 7.3815 14.3429C7.42385 14.3596 7.46915 14.3673 7.5146 14.3657C7.55905 14.3673 7.6034 14.3598 7.64495 14.3439C7.6865 14.3279 7.7244 14.3037 7.75635 14.2728C7.78835 14.2419 7.8138 14.2048 7.8312 14.1638C7.84855 14.1229 7.8575 14.0788 7.85745 14.0343Z" fill="#1971BD"/>
<path d="M15.2857 5.10852V5.22282C15.2857 6.10282 15.2857 6.99427 15.2857 7.88567C15.2825 8.40347 15.0775 8.89957 14.7143 9.26852C14.2837 9.75117 13.7586 10.1402 13.1714 10.4114C12.4804 10.7255 11.7557 10.9594 11.0114 11.1085H11C10.9734 10.3792 10.8893 9.65317 10.7486 8.93712H10.44C10.1314 8.93712 9.82284 8.93712 9.50284 8.93712C9.46389 8.93262 9.42444 8.94007 9.38979 8.95842C9.35509 8.97677 9.32679 9.00522 9.30859 9.03997L8.1657 10.4914V10.56L7.02284 9.06282C7.00514 9.04062 6.98244 9.02287 6.95669 9.01097C6.93089 8.99907 6.90269 8.99337 6.87429 8.99427H5.73144C5.66284 8.99427 5.62859 8.99427 5.62859 9.08567C5.62859 9.47427 5.50284 9.86282 5.45714 10.2285C5.41144 10.5943 5.45714 10.8 5.39999 11.0743C5.39369 11.1005 5.39369 11.128 5.39999 11.1543L4.93143 11.0514C4.15713 10.8561 3.41173 10.5603 2.71429 10.1714C2.22608 9.91807 1.79448 9.56812 1.44572 9.14282C1.15679 8.79652 0.999 8.35952 1 7.90852C1 7.00567 1 6.10282 1 5.21137V5.10852L1.49143 5.53137C2.06059 5.95477 2.68805 6.29352 3.35429 6.53712C4.20341 6.85172 5.08509 7.07022 5.98284 7.18852C6.98244 7.32472 7.9926 7.36682 9 7.31427C10.3375 7.26462 11.6595 7.01022 12.92 6.55997C13.7035 6.28932 14.4315 5.87887 15.0686 5.34852L15.2857 5.10852Z" fill="#1971BD"/>
<path d="M6.33789 11.2456L6.44074 10.2856C6.67714 10.5864 6.87309 10.9168 7.02364 11.2685L6.33789 11.2456Z" fill="#1971BD"/>
<path d="M9.25195 11.3028C9.4014 10.9423 9.5932 10.6008 9.8234 10.2856L9.92625 11.1999L9.25195 11.3028Z" fill="#1971BD"/>
</g>
<defs>
<clipPath id="clip0_703_2634">
<rect width="16" height="16" fill="white"/>
</clipPath>
</defs>
</svg>

<svg xmlns="http://www.w3.org/2000/svg" width="16" height="16" fill="none" xmlns:v="https://vecta.io/nano"><g clip-path="url(#A)" fill="#1971bd"><path d="M7.674 0h1.029.629c.771.058 1.536.184 2.286.377a8.56 8.56 0 0 1 2.149.869 3.76 3.76 0 0 1 1.143.971 1.67 1.67 0 0 1 .309 1.577c-.123.381-.349.721-.651.983a5.21 5.21 0 0 1-1.554.971 11.27 11.27 0 0 1-3.04.789 16 16 0 0 1-2.663.08 12.81 12.81 0 0 1-2.571-.331 8.34 8.34 0 0 1-2.183-.857 3.72 3.72 0 0 1-1.143-.994c-.251-.299-.393-.675-.401-1.066a1.71 1.71 0 0 1 .356-1.082 3.63 3.63 0 0 1 .537-.571 6.37 6.37 0 0 1 2-1.063C4.976.28 6.095.061 7.229 0h.446zm7.623 12.686a2.73 2.73 0 0 1 0 .286c-.11.446-.358.846-.708 1.143a5.36 5.36 0 0 1-1.669 1.029 11.56 11.56 0 0 1-2.537.674A14.71 14.71 0 0 1 7.857 16a13 13 0 0 1-3.68-.56 6.74 6.74 0 0 1-2.171-1.063c-.376-.277-.678-.642-.88-1.063A1.59 1.59 0 0 1 1 12.663V9.76a6.12 6.12 0 0 0 2.126 1.337 11 11 0 0 0 2.069.606h.091v2.777h1.429c-.23-.854-.353-1.733-.366-2.617h.217.674a.09.09 0 0 1 .04.003c.013.004.025.01.036.019a.11.11 0 0 1 .026.031c.007.012.011.025.012.039l.343 1.143v.057h.846v-.057l.354-1.143a.08.08 0 0 1 .103 0l.891-.069c-.007.881-.13 1.757-.366 2.606h1.486v-2.754l.754-.183a8.51 8.51 0 0 0 2.789-1.143c.24-.171.446-.377.674-.56h.069v2.834zm-6.468 1.68c.045 0 .09-.009.131-.026a.36.36 0 0 0 .111-.074c.032-.031.057-.07.074-.111s.026-.086.026-.131c-.015-.082-.058-.155-.122-.209a.35.35 0 0 0-.227-.082c-.083 0-.163.029-.227.082s-.107.127-.122.209c0 .046.009.091.027.134a.34.34 0 0 0 .077.113.33.33 0 0 0 .115.073c.043.016.089.024.135.023zm-.971-.331a.33.33 0 0 0-.023-.135.35.35 0 0 0-.074-.115.34.34 0 0 0-.113-.077c-.043-.018-.088-.027-.134-.027a.34.34 0 0 0-.242.101c-.064.065-.1.152-.1.242a.33.33 0 0 0 .023.133.34.34 0 0 0 .187.187.33.33 0 0 0 .133.023.33.33 0 0 0 .13-.022c.042-.016.079-.04.111-.071a.33.33 0 0 0 .101-.239zm7.428-8.926v.114 2.663a1.99 1.99 0 0 1-.571 1.383 4.72 4.72 0 0 1-1.543 1.143 9.94 9.94 0 0 1-2.16.697H11a14.02 14.02 0 0 0-.251-2.171h-.309-.937c-.039-.005-.078.003-.113.021s-.063.047-.081.082l-1.143 1.451v.069L7.023 9.063c-.018-.022-.04-.04-.066-.052a.18.18 0 0 0-.082-.017H5.731c-.069 0-.103 0-.103.091 0 .389-.126.777-.171 1.143s0 .572-.057.846a.18.18 0 0 0 0 .08l-.469-.103c-.774-.195-1.52-.491-2.217-.88a4.05 4.05 0 0 1-1.269-1.029A1.92 1.92 0 0 1 1 7.909V5.211v-.103l.491.423a7.35 7.35 0 0 0 1.863 1.006c.849.315 1.731.533 2.629.651A16.19 16.19 0 0 0 9 7.314a13.1 13.1 0 0 0 3.92-.754 6.86 6.86 0 0 0 2.149-1.211l.217-.24zm-8.948 6.137l.103-.96a4.38 4.38 0 0 1 .583.983l-.686-.023zm2.914.057a4.92 4.92 0 0 1 .571-1.017l.103.914-.674.103z"/></g><defs><clipPath id="A"><path fill="#fff" d="M0 0h16v16H0z"/></clipPath></defs></svg>
